X:1
T:Title
%%score { ( 1 4 ) | ( 2 3 ) }
L:1/8
M:3/4
K:Ab
V:1 treble nm="Grand Piano"
V:4 treble 
V:2 bass 
V:3 bass 
V:1
 z2 z2[Q:1/4=94] [CE]c | cB B2 EB | [DB][CA] [CA]2 [CE]2 | FF F2 A2 |[M:2/4] E4 |[M:1/4] [CE]c | %6
[M:3/4] cB B2 EB | [DB][CA] [CA]2 A-[_GA] | z2 z2 E2 |[M:2/4] [A,CE]4 |] %10
V:2
 z2 z2 z E | [E,E][E,D] [E,D]2 [E,G,D]2 | [A,,A,][A,,A,] [A,,A,]2 [A,,A,]2 | %3
 [D,A,D][D,A,D] [D,A,D]2 [F,A,D]2 |[M:2/4] [A,C]4 |[M:1/4] z E | %6
[M:3/4] [E,E][E,D] [E,D]2 [E,G,D]2 | [A,,A,][A,,A,] [A,,A,]2 z E | D,D, E,2 z B, |[M:2/4] A,,4 |] %10
V:3
 z2 z2 [A,,A,]2 | x6 | x6 | x6 |[M:2/4] x4 |[M:1/4] [A,,A,]2 |[M:3/4] x6 | z2 z2 A,,2 | z2 z2 E,2 | %9
[M:2/4] x4 |] %10
V:4
 x6 | x6 | x6 | x6 |[M:2/4] x4 |[M:1/4] x2 |[M:3/4] x6 | z2 z2 .[CE]2 | %8
 [DFA][A,DF] [A,CE]2 [G,B,]D |[M:2/4] x4 |] %10

